X: 94
T: Pódźmy z ochotą, Panu chwałę dajmy
C: Mikołaj Gomółka
%%abc-version 2.0
%%abcx-abcm2ps-target-version 5.9.1 (29 Sep 2008)
%%abc-creator hum2abc beta
%%abcx-conversion-date 2021/10/04 07:59:10
%%abc-edited-by Marta Lawrence
%%abcx-initial-encoding-date 2020-02-15
%%humdrum-veritas 540408066
%%humdrum-veritas-data 874620655
%%linebreak <none>
%%barnumbers 0
L: 1/4
M: C|
N: Derived from pl-wn--sd-xvi-qu-273--095_gomolka-mikolaj--podzmy-z-ochota-panu-chwale-dajmy.krn
%%staves [1 2 3 4]
V: 1 clef=treble
V: 2
V: 3 clef=alto
V: 4
K: C
[V:1] G2>G2ABc2 [|] 
[V:2] D2>G2FDE2 [|] 
[V:3] B,2>E2DDC2 [|] 
[V:4] G,2>E,2F,G,E,2 [|] 
[V:1] c4c4 [|] 
[V:2] E4F3E [|] 
[V:3] E2>D2C3B, [|] 
[V:4] C2>B,2A,3G, [|] 
[V:1] f4f2ed [|] 
[V:2] A2>G2F2F2 [|] 
[V:3] A,B,C4B,2 [|] 
[V:4] F,2>E,2D,2D,2 [|] 
[V:1] e2zeddc2 [|] 
[V:2] G2zcAAA2 [|] 
[V:3] C2zEFFE3/F/ [|] 
[V:4] C,2zCDD,A,2 [|] 
[V:1] B2B2A2A3 [|] 
[V:2] D2>E2F2C4 [|] 
[V:3] G2G2F2E2 [|] 
[V:4] G,>A,B,CD2C4 [|] 
[V:1] GG4F2 [|] 
[V:2] D2E2DC [|] 
[V:3] D2D2C4 [|] 
[V:4] B,2A,4 [|] 
[V:1] G2zGG2G2 [|] 
[V:2] B,2zEE2E2 [|] 
[V:3] D2zCC2C2 [|] 
[V:4] G,2zC,C,2C,2 [|] 
[V:1] A4G2B2 [|] 
[V:2] F4E2G2 [|] 
[V:3] C4C2D2 [|] 
[V:4] F,4C,2G,2 [|] 
[V:1] B2c2c2BA [|] 
[V:2] G2AGFG2F [|] 
[V:3] E2>D2CB,DC [|] 
[V:4] E,2CB,A,G,A,2 [|] 
[V:1] BABcdcde [|] 
[V:2] GFG2AGAB [|] 
[V:3] DCDEFEFG [|] 
[V:4] G,2G,2D,3G, [|] 
[V:1] f4e2e2 [|] 
[V:2] c4c2c2 [|] 
[V:3] A4G2G2 [|] 
[V:4] F,G,A,B,C2C,2 [|] 
[V:1] d2d2c2c2 [|] 
[V:2] B2A2A2A2 [|] 
[V:3] G2F2F2EF [|] 
[V:4] G,2D,E,F,G,A,2 [|] 
[V:1] B2zGABc2 [|] 
[V:2] D2zEFG2F [|] 
[V:3] G2zB,CD2C [|] 
[V:4] G,2zE,A,G,A,2 [|] 
[V:1] Bcdef6 [|] 
[V:2] GABcc2c4 [|] 
[V:3] DEFG2<A2G [|] 
[V:4] G,2z2F,3E, [|] 
[V:1] d2e2e2 [|] 
[V:2] B2c2G2 [|] 
[V:3] F4G2E2 [|] 
[V:4] D,4C,2C2 [|] 
[V:1] c2^c2d3c [|] 
[V:2] A2A2A4 [|] 
[V:3] E2E2^F4 [|] 
[V:4] A,2A,2D2D,2 [|] 
[V:1] B2e2>d2=cB [|] 
[V:2] D2EFG2AG [|] 
[V:3] G2>E2E2E2 [|] 
[V:4] G,F,E,D,C,2C2 [|] 
[V:1] ABcABc2B [|] 
[V:2] c>BAAGFG3/F/ [|] 
[V:3] =FE2FDCD2 [|] 
[V:4] F,G,A,F,G,A,G,2 [|] 
[V:1] c32 |]  
[V:2] E32 |]  
[V:3] C32 |]  
[V:4] C,32 |]  


